coreui/free/cil-resize-width.svg

<svg xmlns="http://www.w3.org/2000/svg" viewBox="0 0 512 512">
  <path fill="var(--ci-primary-color, currentColor)" d="M366.156,392H328V320H184v72H145.373L9.607,256.235,145.845,120H184v72H328V120h38.627L502.393,255.765ZM54.863,256.235,152,353.373V288H360v64.9l97.137-97.137L360,158.627V224H152V159.1Z" class="ci-primary"/>
</svg>

<svg viewBox="0 0 512 512" xmlns="http://www.w3.org/2000/svg"><path d="M366.15 392h-38.16v-72h-144v72h-38.63L9.59 256.23 145.83 119.99h38.155v72h144v-72h38.62l135.76 135.765ZM54.85 256.23l97.137 97.13v-65.38h208v64.9l97.13-97.137 -97.14-97.14v65.37h-208v-64.9Z"/></svg>
